################################################################
################################################################
################################################################
###.................#.....................#..................###
###.................#.....................#..................###
###.................#.....................#..................###
###.................#.....................#..................###
###...P....G>.......#.....................#..................###
###.................#......a..............#......F...........###
###.................#.....................#..................###
###.................#..............Ig.....#.........J........###
###.................D.....................#..................###
###.................#.....................D..................###
###.....H...........#.....................#..................###
###...........Y.....#.....................#......H...........###
###.................#.....................#..................###
###.................#..............W......#..................###
###......I..........#.....................#..................###
###.................#.....................#..................###
###....L............#.............L.......#.............L....###
###.................#.....................#..................###
##########D####################D####################D###########
###.................#.....................#..................###
###.................#.....................#..................###
###.................#.....................#..................###
###.................#.....................#..................###
###.................#.....................#..................###
###.................#.....................#..................###
###.................#.....................#..................###
###............K....#.....................#......Y.....G.....###
###.................#.....................#..................###
###.................D...........U.........#..................###
###.................#.....................q..................###
###.................#.....................#..................###
###.................#...............T.....#...........I..A...###
###.....O..c........#.....................#..................###
###...h.............#.........p...........#........r.........###
###.................#.....................#..................###
###.................#.....................#..................###
###.................#.....................#..................###
###.................#.....................#..................###
##############D####################S###################D########
###.................#.....................#..................###
###.................#.....................#..................###
###.................#.....................#..................###
###.................#.....................#..................###
###.................#.....................#..................###
###.................#.........N...........#....A.............###
###....K............#.....................#..................###
###.................#.....................#..................###
###.................#.....................#..................###
###.................D.....................#...........u......###
###.................#.................F...D..................###
###.................#.....................#..................###
###.................#.....................#...............L..###
###.....H...........#.......V.............#...........M......###
###.................#.....................#................#.###
###.................#.....................#................E####
###.................#.....................#................#.###
###.................#.....................#..................###
###.................#.....................#..................###
################################################################
################################################################
################################################################
